usr/share/icons/biglinux-icons-material/symbolic/places/folder-print-symbolic.svg

<svg width="16" height="16" version="1.1" xmlns="http://www.w3.org/2000/svg">
 <defs>
  <style id="current-color-scheme" type="text/css">.ColorScheme-Text { color:#363636; }</style>
 </defs>
 <g fill="#363636" stroke-linecap="round" stroke-linejoin="round" stroke-width="2" style="paint-order:stroke fill markers" aria-label="">
  <path d="m15 6q0.20312 0 0.38281 0.078125 0.1875 0.078125 0.32031 0.21875 0.14062 0.13281 0.21875 0.32031 0.078125 0.17969 0.078125 0.38281v7h-4v2h-8v-2h-4v-7q0-0.20312 0.078125-0.38281 0.078125-0.1875 0.21094-0.32031 0.14062-0.14062 0.32031-0.21875 0.1875-0.078125 0.39062-0.078125h3v-6h8v6zm-10 0h6v-5h-6zm6 5h-6v4h6zm4-4h-14v6h3v-3h8v3h3zm-12.5 1q0.20312 0 0.35156 0.14844t0.14844 0.35156-0.14844 0.35156-0.35156 0.14844-0.35156-0.14844-0.14844-0.35156 0.14844-0.35156 0.35156-0.14844z" stroke-width="2"/>
 </g>
</svg>

<svg xmlns="http://www.w3.org/2000/svg" width="16" height="16"><defs><style id="current-color-scheme" type="text/css">.ColorScheme-Text{color:#dedede}</style></defs><path fill="#dedede" stroke-linecap="round" stroke-linejoin="round" stroke-width="2" d="M15 6q.203 0 .383.078.187.078.32.219.14.133.219.32Q16 6.797 16 7v7h-4v2H4v-2H0V7q0-.203.078-.383.078-.187.211-.32.14-.14.32-.219Q.797 6 1 6h3V0h8v6zM5 6h6V1H5zm6 5H5v4h6zm4-4H1v6h3v-3h8v3h3zM2.5 8q.203 0 .352.148T3 8.5t-.148.352T2.5 9t-.352-.148T2 8.5t.148-.352T2.5 8z" aria-label="" style="paint-order:stroke fill markers"/></svg>
